public/icons/picto-arrow.svg

<svg fill="none" height="28" viewBox="0 0 28 28" width="28" xmlns="http://www.w3.org/2000/svg"><circle cx="14" cy="14" fill="#4550e5" r="14"/><path d="m13.1559 19.149c-.0824-.0728-.1472-.1611-.1901-.2589-.0428-.0978-.0628-.203-.0584-.3085-.0193-.1056-.0193-.2135 0-.3192.0389-.0969.1049-.1826.1911-.2482l3.8236-3.5464h-9.04269c-.11364.0048-.22715-.0118-.33366-.0489-.10651-.037-.20381-.0938-.28601-.1667-.08221-.0729-.14761-.1606-.19226-.2576-.04464-.0971-.0676-.2015-.06748-.307.00941-.2135.10508-.416.26801-.5671.16292-.1511.38118-.2398.6114-.2486h9.11909l-3.8235-3.54635c-.0849-.07195-.1526-.15963-.1987-.25737s-.0696-.20336-.0689-.31005c.0023-.22018.0985-.43055.2676-.58515.0881-.08285.2016-.13857.325-.15959.1075-.01756.2175-.01756.325 0 .1139-.01785.2302-.01785.3441 0 .1124.03146.2122.09317.2868.17732l5.2956 4.91169c.1559.154.2444.3563.2485.5675-.0047.2163-.0929.4239-.2485.5851l-5.2956 4.9118c-.0735.0891-.173.1568-.2868.195-.1203.0176-.2429.0176-.3632 0-.1204.0176-.2429.0176-.3633 0-.1113-.0505-.2092-.1231-.2867-.2128z" fill="#ffca05"/></svg>

<svg width="28" height="28" viewBox="0 0 28 28" fill="none" xmlns="http://www.w3.org/2000/svg">
<circle cx="14" cy="14" r="14" fill="#4550E5"/>
<path d="M13.1559 19.149C13.0735 19.0762 13.0087 18.9879 12.9658 18.8901C12.923 18.7923 12.903 18.6871 12.9074 18.5816C12.8881 18.476 12.8881 18.3681 12.9074 18.2624C12.9463 18.1655 13.0123 18.0798 13.0985 18.0142L16.9221 14.4678H7.87941C7.76577 14.4726 7.65226 14.456 7.54575 14.4189C7.43924 14.3819 7.34194 14.3251 7.25974 14.2522C7.17753 14.1793 7.11213 14.0916 7.06748 13.9946C7.02284 13.8975 6.99988 13.7931 7 13.6876C7.00941 13.4741 7.10508 13.2716 7.26801 13.1205C7.43093 12.9694 7.64919 12.8807 7.87941 12.8719H16.9985L13.175 9.32555C13.0901 9.2536 13.0224 9.16592 12.9763 9.06818C12.9302 8.97044 12.9067 8.86482 12.9074 8.75813C12.9097 8.53795 13.0059 8.32758 13.175 8.17298C13.2631 8.09013 13.3766 8.03441 13.5 8.01339C13.6075 7.99583 13.7175 7.99583 13.825 8.01339C13.9389 7.99554 14.0552 7.99554 14.1691 8.01339C14.2815 8.04485 14.3813 8.10656 14.4559 8.19071L19.7515 13.1024C19.9074 13.2564 19.9959 13.4587 20 13.6699C19.9953 13.8862 19.9071 14.0938 19.7515 14.255L14.4559 19.1668C14.3824 19.2559 14.2829 19.3236 14.1691 19.3618C14.0488 19.3794 13.9262 19.3794 13.8059 19.3618C13.6855 19.3794 13.563 19.3794 13.4426 19.3618C13.3313 19.3113 13.2334 19.2387 13.1559 19.149Z" fill="#FFCA05"/>
</svg>
